X:54
T:O'Keeffe's Polka
R:polka
D:De Danann: The Mist Covered Mountain
Z:id:hn-polka-54
M:2/4
L:1/8
K:Bm
dB bB|de f>e|dB bB|c/B/A/c/ ef/e/|dB bB|de f>e|d>e f/e/d|1 B2 B>c:|2 B2 B2||
|:fe/f/ ba|fe f>e|dB bB|c/B/A/c/ ed/e/|
fe/f/ ba|fe f>e|d>e f/e/d|1 B2 B2:|2 B2 B>c||
